icons/3_Generic/Euro.svg

<svg width="1024" height="1024" fill="none" xmlns="http://www.w3.org/2000/svg"><g clip-path="url(#a)"><path d="M512 1024c282.77 0 512-229.23 512-512S794.77 0 512 0 0 229.23 0 512s229.23 512 512 512Z" fill="#8C72BD"/><path d="M683.2 698.53c6.28 7.01 5.7 17.779-1.31 24.069 0 0-.02.01-.02.021-91.24 81.56-231.32 73.71-312.87-17.53a221.617 221.617 0 0 1-55.72-130.59h-51.84c-9.41 0-17.04-7.63-17.04-17.04s7.63-17.041 17.04-17.041h51.13V483.6h-51.13c-9.41 0-17.04-7.631-17.04-17.041s7.63-17.04 17.04-17.04h51.84c9.43-122.01 115.99-213.27 238-203.84a221.639 221.639 0 0 1 130.59 55.72c7.06 6.28 7.7 17.09 1.42 24.15-6.28 7.06-17.09 7.701-24.15 1.421-77.2-69.02-195.72-62.38-264.74 14.81a187.513 187.513 0 0 0-46.92 107.739h186.67c9.41 0 17.04 7.63 17.04 17.04s-7.63 17.041-17.04 17.041H346.66v56.819H488.7c9.41 0 17.04 7.631 17.04 17.041s-7.63 17.04-17.04 17.04H347.49c9.43 103.12 100.66 179.07 203.78 169.65a187.466 187.466 0 0 0 107.88-46.921c7.01-6.28 17.78-5.7 24.06 1.31l-.01-.009Z" fill="#fff"/></g><defs><clipPath id="a"><path fill="#fff" d="M0 0h1024v1024H0z"/></clipPath></defs></svg>

<svg width="1024" height="1024" viewBox="0 0 1024 1024" fill="none" xmlns="http://www.w3.org/2000/svg">
<g clip-path="url(#clip0_3_386)">
<path d="M512 1024C794.77 1024 1024 794.77 1024 512C1024 229.23 794.77 0 512 0C229.23 0 0 229.23 0 512C0 794.77 229.23 1024 512 1024Z" fill="#8C72BD"/>
<path d="M683.2 698.53C689.48 705.54 688.9 716.309 681.89 722.599C681.89 722.599 681.87 722.609 681.87 722.62C590.63 804.18 450.55 796.33 369 705.09C336.608 668.848 317.029 622.962 313.28 574.5H261.44C252.03 574.5 244.4 566.87 244.4 557.46C244.4 548.05 252.03 540.419 261.44 540.419H312.57V483.6H261.44C252.03 483.6 244.4 475.969 244.4 466.559C244.4 457.149 252.03 449.519 261.44 449.519H313.28C322.71 327.509 429.27 236.249 551.28 245.679C599.743 249.43 645.628 269.009 681.87 301.399C688.93 307.679 689.57 318.489 683.29 325.549C677.01 332.609 666.2 333.25 659.14 326.97C581.94 257.95 463.42 264.59 394.4 341.78C367.62 371.738 351.172 409.507 347.48 449.519H534.15C543.56 449.519 551.19 457.149 551.19 466.559C551.19 475.969 543.56 483.6 534.15 483.6H346.66V540.419H488.7C498.11 540.419 505.74 548.05 505.74 557.46C505.74 566.87 498.11 574.5 488.7 574.5H347.49C356.92 677.62 448.15 753.57 551.27 744.15C591.333 740.49 629.156 724.04 659.15 697.229C666.16 690.949 676.93 691.529 683.21 698.539L683.2 698.53Z" fill="white"/>
</g>
<defs>
<clipPath id="clip0_3_386">
<rect width="1024" height="1024" fill="white"/>
</clipPath>
</defs>
</svg>
